X: 1717
T: THE HUNTER'S HORNPIPE
M:2/4
L:1/16
B:O'NEILL'S 1717
N:"collected by F. O'Neill"
Z:Transcribed by A.LEE WORMAN
K:G
(dc)|B2AB d2de|=fece d2d^f|g2dc BAGB|A2AA A2Bc|
defd gddB|cBAc B2AG|GBdg ecAF|G2GG G2:|
|:(dB)|G2GG G2AB|cBAG F2dB|G2GG GBdg|fdef d2dB|
G2GG gfed|cBAG F2AF|GBdg ecAF|G2GG G2:|


